T: Road To The River
M: 4/4
L: 1/8
K: Amaj
CD|EA, (3A,A,A, EA,FA,|EA, (3A,A,A, A,3c|dcBA GABc|B2 (3B,B,B, B,2 CD|
EA, (3A,A,A, EA,FA,|EA, (3A,A,A, A,3c|dcBA GABc|A2 (3A,A,A, A,2 :|
AB|c2 ec cBdB|BAcA AGFE|EBBc dcBA|GABc B2 AB|
c2 ec cBdB|BAcA AGFE|EBBc dBAG|A2 (3A,A,A, A,2 AB|
c2 ec cBdB|BAcA AGFE|EBBc dcBA|GABc B2 AB|
c2 ac B2 gB|A2 fa AGFE|EBBc dBAG|A2 (3AAA A2 ||
fg|a2 (3A,A,A, A,B,CD|EDCB, A,3g|agfe dcBA|GABc B3g|
agfe dcBA|dcde fgaf|ecBA GABd|1 c2 (3AAA A2 :|2 c2 (3A,A,A, A,2 ||
